svg/color/aab.svg

<?xml version="1.0" encoding="UTF-8" ?>
<!DOCTYPE svg PUBLIC "-//W3C//DTD SVG 1.1//EN" "http://www.w3.org/Graphics/SVG/1.1/DTD/svg11.dtd">
<svg width="250pt" height="250pt" viewBox="0 0 250 250" version="1.1" xmlns="http://www.w3.org/2000/svg">
<g id="#000000ff">
<path fill="#000000" opacity="1.00" d=" M 0.00 0.00 L 250.00 0.00 L 250.00 250.00 L 0.00 250.00 L 0.00 0.00 M 80.22 102.40 C 74.55 109.98 68.54 117.29 62.80 124.82 C 56.93 132.39 50.97 139.91 45.11 147.50 C 48.57 147.57 52.02 147.51 55.48 147.43 C 56.44 145.80 57.55 144.27 58.76 142.82 C 60.09 141.15 61.44 139.49 62.75 137.80 C 69.18 129.29 76.10 121.14 82.25 112.44 C 82.44 124.13 82.21 135.83 82.37 147.53 C 85.05 147.50 87.74 147.49 90.42 147.50 C 90.42 132.46 90.37 117.43 90.45 102.39 C 87.04 102.40 83.63 102.41 80.22 102.40 M 134.73 102.45 C 131.18 107.30 127.42 111.99 123.75 116.75 C 121.16 120.16 118.46 123.49 115.81 126.85 C 110.61 133.80 104.94 140.40 99.95 147.50 C 103.37 147.52 106.80 147.58 110.21 147.38 C 111.74 144.33 114.30 141.99 116.25 139.23 C 122.17 131.49 128.24 123.87 134.26 116.22 C 135.12 115.07 135.98 113.93 136.84 112.79 C 136.76 124.33 137.00 135.87 136.72 147.40 C 139.54 147.54 142.36 147.54 145.18 147.40 C 144.84 132.39 145.39 117.35 144.90 102.34 C 141.51 102.37 138.12 102.35 134.73 102.45 M 159.55 102.64 C 161.81 105.01 163.74 107.65 165.71 110.26 C 166.90 111.74 168.09 113.23 169.24 114.74 C 171.86 118.14 174.60 121.44 177.12 124.91 C 171.63 132.58 165.12 139.52 159.98 147.43 C 163.36 147.57 166.74 147.59 170.12 147.46 C 173.59 141.98 178.13 137.28 181.88 131.99 C 182.46 132.44 183.64 133.33 184.23 133.77 C 186.28 136.69 188.58 139.42 190.73 142.26 C 192.10 143.98 193.48 145.70 194.74 147.51 C 198.17 147.49 201.61 147.62 205.04 147.31 C 198.75 140.19 193.36 132.32 187.26 125.04 C 191.90 119.07 196.57 113.12 201.27 107.20 C 202.46 105.79 203.35 104.17 204.14 102.51 C 200.99 102.41 197.84 102.41 194.69 102.43 C 191.74 106.92 187.36 110.51 185.13 115.41 C 184.73 115.44 183.93 115.51 183.52 115.54 C 183.54 116.03 183.58 117.02 183.60 117.51 C 183.13 117.57 182.20 117.68 181.74 117.73 C 181.22 117.10 180.20 115.84 179.68 115.20 C 176.49 110.95 173.02 106.90 170.00 102.52 C 166.52 102.35 163.01 102.15 159.55 102.64 Z" />
</g>
<g id="#fdfdfdff">
<path fill="#fdfdfd" opacity="1.00" d=" M 80.22 102.40 C 83.63 102.41 87.04 102.40 90.45 102.39 C 90.37 117.43 90.42 132.46 90.42 147.50 C 87.74 147.49 85.05 147.50 82.37 147.53 C 82.21 135.83 82.44 124.13 82.25 112.44 C 76.10 121.14 69.18 129.29 62.75 137.80 C 61.44 139.49 60.09 141.15 58.76 142.82 C 57.55 144.27 56.44 145.80 55.48 147.43 C 52.02 147.51 48.57 147.57 45.11 147.50 C 50.97 139.91 56.93 132.39 62.80 124.82 C 68.54 117.29 74.55 109.98 80.22 102.40 Z" />
<path fill="#fdfdfd" opacity="1.00" d=" M 134.73 102.45 C 138.12 102.35 141.51 102.37 144.90 102.34 C 145.39 117.35 144.84 132.39 145.18 147.40 C 142.36 147.54 139.54 147.54 136.72 147.40 C 137.00 135.87 136.76 124.33 136.84 112.79 C 135.98 113.93 135.12 115.07 134.26 116.22 C 128.24 123.87 122.17 131.49 116.25 139.23 C 114.30 141.99 111.74 144.33 110.21 147.38 C 106.80 147.58 103.37 147.52 99.95 147.50 C 104.94 140.40 110.61 133.80 115.81 126.85 C 118.46 123.49 121.16 120.16 123.75 116.75 C 127.42 111.99 131.18 107.30 134.73 102.45 Z" />
<path fill="#fdfdfd" opacity="1.00" d=" M 159.55 102.64 C 163.01 102.15 166.52 102.35 170.00 102.52 C 173.02 106.90 176.49 110.95 179.68 115.20 C 180.20 115.84 181.22 117.10 181.74 117.73 C 181.34 120.70 178.73 122.59 177.12 124.91 C 174.60 121.44 171.86 118.14 169.24 114.74 C 168.09 113.23 166.90 111.74 165.71 110.26 C 163.74 107.65 161.81 105.01 159.55 102.64 Z" />
<path fill="#fdfdfd" opacity="1.00" d=" M 187.26 125.04 C 193.36 132.32 198.75 140.19 205.04 147.31 C 201.61 147.62 198.17 147.49 194.74 147.51 C 193.48 145.70 192.10 143.98 190.73 142.26 C 188.58 139.42 186.28 136.69 184.23 133.77 C 183.62 132.86 183.02 131.94 182.43 131.02 C 184.09 129.07 185.69 127.07 187.26 125.04 Z" />
</g>
<g id="#0b7df3ff">
<path fill="#0b7df3" opacity="1.00" d=" M 185.13 115.41 C 187.36 110.51 191.74 106.92 194.69 102.43 C 197.84 102.41 200.99 102.41 204.14 102.51 C 203.35 104.17 202.46 105.79 201.27 107.20 C 196.57 113.12 191.90 119.07 187.26 125.04 C 185.69 127.07 184.09 129.07 182.43 131.02 C 183.02 131.94 183.62 132.86 184.23 133.77 C 183.64 133.33 182.46 132.44 181.88 131.99 C 178.13 137.28 173.59 141.98 170.12 147.46 C 166.74 147.59 163.36 147.57 159.98 147.43 C 165.12 139.52 171.63 132.58 177.12 124.91 C 178.73 122.59 181.34 120.70 181.74 117.73 C 182.20 117.68 183.13 117.57 183.60 117.51 C 183.58 117.02 183.54 116.03 183.52 115.54 C 183.93 115.51 184.73 115.44 185.13 115.41 Z" />
</g>
</svg>

<?xml version="1.0" encoding="utf-8"?>
<!-- Generator: Adobe Illustrator 26.0.3, SVG Export Plug-In . SVG Version: 6.00 Build 0)  -->
<svg version="1.1" id="Layer_1" xmlns="http://www.w3.org/2000/svg" xmlns:xlink="http://www.w3.org/1999/xlink" x="0px" y="0px"
	 viewBox="0 0 250 250" style="enable-background:new 0 0 250 250;" xml:space="preserve">
<style type="text/css">
	.st0{fill:#FDFDFD;}
	.st1{fill:#0B7DF3;}
</style>
<circle cx="125" cy="125" r="125"/>
<g id="_x23_fdfdfdff">
	<path class="st0" d="M80.2,102.4c3.4,0,6.8,0,10.2,0c-0.1,15,0,30.1,0,45.1c-2.7,0-5.4,0-8,0c-0.2-11.7,0.1-23.4-0.1-35.1
		c-6.2,8.7-13.1,16.8-19.5,25.4c-1.3,1.7-2.7,3.3-4,5c-1.2,1.4-2.3,3-3.3,4.6c-3.5,0.1-6.9,0.1-10.4,0.1
		c5.9-7.6,11.8-15.1,17.7-22.7C68.5,117.3,74.6,110,80.2,102.4z"/>
	<path class="st0" d="M134.7,102.4c3.4-0.1,6.8-0.1,10.2-0.1c0.5,15-0.1,30.1,0.3,45.1c-2.8,0.1-5.6,0.1-8.5,0
		c0.3-11.5,0-23.1,0.1-34.6c-0.9,1.1-1.7,2.3-2.6,3.4c-6,7.7-12.1,15.3-18,23c-1.9,2.8-4.5,5.1-6,8.2c-3.4,0.2-6.8,0.1-10.3,0.1
		c5-7.1,10.7-13.7,15.9-20.7c2.7-3.4,5.4-6.7,7.9-10.1C127.4,112,131.2,107.3,134.7,102.4z"/>
	<path class="st0" d="M159.6,102.6c3.5-0.5,7-0.3,10.4-0.1c3,4.4,6.5,8.4,9.7,12.7c0.5,0.6,1.5,1.9,2.1,2.5c-0.4,3-3,4.9-4.6,7.2
		c-2.5-3.5-5.3-6.8-7.9-10.2c-1.2-1.5-2.3-3-3.5-4.5C163.7,107.7,161.8,105,159.6,102.6z"/>
	<path class="st0" d="M187.3,125c6.1,7.3,11.5,15.2,17.8,22.3c-3.4,0.3-6.9,0.2-10.3,0.2c-1.3-1.8-2.6-3.5-4-5.2
		c-2.1-2.8-4.4-5.6-6.5-8.5c-0.6-0.9-1.2-1.8-1.8-2.8C184.1,129.1,185.7,127.1,187.3,125z"/>
</g>
<g id="_x23_0b7df3ff">
	<path class="st1" d="M185.1,115.4c2.2-4.9,6.6-8.5,9.6-13c3.1,0,6.3,0,9.4,0.1c-0.8,1.7-1.7,3.3-2.9,4.7c-4.7,5.9-9.4,11.9-14,17.8
		c-1.6,2-3.2,4-4.8,6c0.6,0.9,1.2,1.8,1.8,2.8c-0.6-0.4-1.8-1.3-2.3-1.8c-3.8,5.3-8.3,10-11.8,15.5c-3.4,0.1-6.8,0.1-10.1,0
		c5.1-7.9,11.7-14.8,17.1-22.5c1.6-2.3,4.2-4.2,4.6-7.2c0.5-0.1,1.4-0.2,1.9-0.2c0-0.5-0.1-1.5-0.1-2
		C183.9,115.5,184.7,115.4,185.1,115.4z"/>
</g>
</svg>
